svgs/charts/trend-up-01.svg

<svg width="24" height="24" viewBox="0 0 24 24" fill="none" xmlns="http://www.w3.org/2000/svg">
<path d="M22 7L14.1314 14.8686C13.7354 15.2646 13.5373 15.4627 13.309 15.5368C13.1082 15.6021 12.8918 15.6021 12.691 15.5368C12.4627 15.4627 12.2646 15.2646 11.8686 14.8686L9.13137 12.1314C8.73535 11.7354 8.53735 11.5373 8.30902 11.4632C8.10817 11.3979 7.89183 11.3979 7.69098 11.4632C7.46265 11.5373 7.26465 11.7354 6.86863 12.1314L2 17M22 7H15M22 7V14" stroke="#1C1D20" stroke-width="1.5" stroke-linecap="round" stroke-linejoin="round"/>
</svg>

<svg fill="none" xmlns="http://www.w3.org/2000/svg" viewBox="0 0 24 24"><path d="m22 7-7.869 7.869c-.396.396-.594.594-.822.668a1 1 0 0 1-.618 0c-.228-.074-.426-.272-.822-.668L9.13 12.13c-.396-.396-.594-.594-.822-.668a1 1 0 0 0-.618 0c-.228.074-.426.272-.822.668L2 17M22 7h-7m7 0v7" stroke="#1C1D20" stroke-width="1.5" stroke-linecap="round" stroke-linejoin="round"/></svg>
